!!!OTL: ALS WIR JUENGST IN REGENSBURG WAREN
!!!ARE: Europa, Mitteleuropa, Deutschland, Bayern
!!!SCT: F0221B
!!!YEM: Copyright 1995, estate of Helmut Schaffrath.
**kern
*ICvox
*Ivox
*M2/4
*k[f#c#]
*D:
=1
{4.A
8G
=2
8F#
8A
8d
8F#
=3
4A
8G
8E
=4
4F#
8D
8r}
=5
{4.A
8G
=6
8F#
8A
8d
8F#
=7
4A
8G
8E
=8
4F#
8D
8r}
=9
{4D
8F#
8A
=10
4D
8F#
8A
=11
2c#
=12
4A
4r}
=13
{4c#
4c#
=14
4d
4F#
=15
2A
=16
4F#
4r}
=17
{4D
8F#
8A
=18
4D
8F#
8A
=19
8B
8G
8d
8B
=20
4A
4r}
=21
{4c#
4c#
=22
4d
4F#
=23
4A
8f#
8e
=24
4d
4r}
==
!!!AGN: Scherz - Lied, Liebe; Schiffer - Lied
!!!ONB: ESAC (Essen Associative Code) Database: FINK
!!!AMT: simple duple
!!!AIN: vox
!!!EED: Helmut Schaffrath
!!!EEV: 1.0
*-
